X: 28
T: the Doon Reel
R: reel
Z: 2012 John Chambers <jc@trillian.mit.edu>
B: "100 Essential Irish Session Tunes" 1995 Dave Mallinson, ed.
M: 4/4
L: 1/8
K: D
A |:\
"D"DFAF BFAF | DFAF "A7"E2FE | "D"D2FA BAFA |1,3 "G"Bd"A"ce "D"dBAF :|2,4 "G"Bd"A"ce "D"d3 :|
|: A |\
"D"d2fd Adfd | Adfd "G"BABc | "D"d2fd Adfb | "A7"afeg "D"fddA |\
"D"d2fd Adfd | Adfd "Em"e3f | "G"gfec dcBA | "A7"Bdce "D"d3 :|
